src/images_karasa_jaga_svg/cmd/sc_calloutshapes.round-rectangular-callout.svg

<svg height="16" viewBox="0 0 16 16" width="16" xmlns="http://www.w3.org/2000/svg" xmlns:xlink="http://www.w3.org/1999/xlink"><linearGradient id="a" gradientUnits="userSpaceOnUse" x1="78.668526" x2="78.668526" y1="202.66666" y2="-32.003304"><stop offset="0" stop-color="#fff"/><stop offset=".59375" stop-color="#fff"/><stop offset=".84375" stop-color="#f1f1f1"/><stop offset=".90625" stop-color="#eaeaea"/><stop offset="1" stop-color="#dfdfdf"/></linearGradient><linearGradient id="b" gradientUnits="userSpaceOnUse" x1="8" x2="120" y1="67.999252" y2="67.999252"><stop offset="0" stop-color="#7c9fcf"/><stop offset=".5" stop-color="#7c9ece"/><stop offset="1" stop-color="#7b9dcf"/></linearGradient><g transform="scale(.125)"><path d="m32 8c-13.157622 0-24 10.842378-24 24v40c0 9.013501 5.147072 16.844122 12.582031 20.943359l-11.738281 23.478521a8.0008 8.0008 0 0 0 12.154297 9.82421l37.808594-30.24609h37.193359c13.15762 0 24-10.842378 24-24v-40c0-13.157622-10.84238-24-24-24z" fill="url(#b)"/><path d="m32 16c-8.864 0-16 7.136-16 16v40c0 8.864 7.136 16 16 16l-16 32 40-32h40c8.864 0 16-7.136 16-16v-40c0-8.864-7.136-16-16-16z" fill="url(#a)"/></g></svg>

<?xml version="1.0" encoding="UTF-8" standalone="no"?>
<!-- Created with Inkscape (http://www.inkscape.org/) -->

<svg
   xmlns:dc="http://purl.org/dc/elements/1.1/"
   xmlns:cc="http://creativecommons.org/ns#"
   xmlns:rdf="http://www.w3.org/1999/02/22-rdf-syntax-ns#"
   xmlns:svg="http://www.w3.org/2000/svg"
   xmlns="http://www.w3.org/2000/svg"
   xmlns:xlink="http://www.w3.org/1999/xlink"
   xmlns:sodipodi="http://sodipodi.sourceforge.net/DTD/sodipodi-0.dtd"
   xmlns:inkscape="http://www.inkscape.org/namespaces/inkscape"
   version="1.1"
   id="svg2"
   width="128"
   height="128"
   viewBox="0 0 128 128"
   sodipodi:docname="sc_calloutshapes.round-rectangular-callout.svg"
   inkscape:export-filename="/home/rizmut/Dokumen/Rizmut/Github/libreoffice-style-karasa-jaga/build/images_karasa_jaga/cmd/sc_calloutshapes.round-rectangular-callout.png"
   inkscape:export-xdpi="12"
   inkscape:export-ydpi="12"
   inkscape:version="0.92.3 (unknown)">
  <metadata
     id="metadata8">
    <rdf:RDF>
      <cc:Work
         rdf:about="">
        <dc:format>image/svg+xml</dc:format>
        <dc:type
           rdf:resource="http://purl.org/dc/dcmitype/StillImage" />
        <dc:title></dc:title>
      </cc:Work>
    </rdf:RDF>
  </metadata>
  <defs
     id="defs6">
    <linearGradient
       inkscape:collect="always"
       id="linearGradient825">
      <stop
         style="stop-color:#f9f9fa;stop-opacity:1;"
         offset="0"
         id="stop821" />
      <stop
         style="stop-color:#f9f9fa;stop-opacity:0;"
         offset="1"
         id="stop823" />
    </linearGradient>
    <linearGradient
       inkscape:collect="always"
       xlink:href="#linearGradient825"
       id="linearGradient1536"
       x1="70.052383"
       y1="-18.468208"
       x2="62.030193"
       y2="84.412926"
       gradientUnits="userSpaceOnUse" />
    <linearGradient
       id="linearGradient3369">
      <stop
         id="stop3372"
         offset="0"
         style="stop-color:#ffffff;stop-opacity:1;" />
      <stop
         style="stop-color:#ffffff;stop-opacity:1;"
         offset="0.59375"
         id="stop3374" />
      <stop
         style="stop-color:#f1f1f1;stop-opacity:1;"
         offset="0.84375"
         id="stop3376" />
      <stop
         id="stop3378"
         offset="0.90625"
         style="stop-color:#eaeaea;stop-opacity:1;" />
      <stop
         id="stop3384"
         offset="1"
         style="stop-color:#dfdfdf;stop-opacity:1;" />
    </linearGradient>
    <linearGradient
       id="linearGradient7422">
      <stop
         style="stop-color:#7c9fcf;stop-opacity:1"
         offset="0"
         id="stop7424" />
      <stop
         id="stop5348"
         offset="0.5"
         style="stop-color:#7c9ece;stop-opacity:1" />
      <stop
         id="stop7426"
         offset="1"
         style="stop-color:#7b9dcf;stop-opacity:1" />
    </linearGradient>
    <linearGradient
       inkscape:collect="always"
       xlink:href="#linearGradient3369"
       id="linearGradient8528"
       x1="72"
       y1="128"
       x2="72"
       y2="0"
       gradientUnits="userSpaceOnUse"
       gradientTransform="matrix(1.8333591,0,0,1.8333591,-53.333333,-32.003303)" />
    <linearGradient
       inkscape:collect="always"
       xlink:href="#linearGradient7422"
       id="linearGradient915"
       x1="8"
       y1="67.999252"
       x2="120"
       y2="67.999252"
       gradientUnits="userSpaceOnUse" />
  </defs>
  <sodipodi:namedview
     pagecolor="#ffffff"
     bordercolor="#666666"
     borderopacity="1"
     objecttolerance="10"
     gridtolerance="10"
     guidetolerance="10"
     inkscape:pageopacity="0"
     inkscape:pageshadow="2"
     inkscape:window-width="1366"
     inkscape:window-height="706"
     id="namedview4"
     showgrid="true"
     inkscape:snap-page="true"
     inkscape:snap-global="true"
     inkscape:zoom="1.0000001"
     inkscape:cx="-101.93707"
     inkscape:cy="63.37903"
     inkscape:window-x="0"
     inkscape:window-y="0"
     inkscape:window-maximized="1"
     inkscape:current-layer="svg2"
     inkscape:snap-smooth-nodes="true">
    <inkscape:grid
       type="xygrid"
       id="grid27"
       spacingx="8"
       spacingy="8"
       empspacing="2" />
  </sodipodi:namedview>
  <g
     id="g899">
    <path
       cx="64"
       cy="64"
       r="42.122112"
       style="opacity:1;fill:url(#linearGradient1536);fill-opacity:1;stroke:none;stroke-width:3.85701394;stroke-linecap:round;stroke-linejoin:bevel;stroke-miterlimit:4;stroke-dasharray:none;stroke-dashoffset:0;stroke-opacity:0.73039216"
       id="circle1528" />
    <path
       sodipodi:type="inkscape:offset"
       inkscape:radius="8"
       inkscape:original="M 32 16 C 23.136 16 16 23.136 16 32 L 16 72 C 16 80.864 23.136 88 32 88 L 16 120 L 56 88 L 96 88 C 104.864 88 112 80.864 112 72 L 112 32 C 112 23.136 104.864 16 96 16 L 32 16 z "
       style="opacity:1;fill:url(#linearGradient915);fill-opacity:1.0;stroke:none;stroke-width:9.70140648;stroke-linecap:square;stroke-linejoin:bevel;stroke-miterlimit:4;stroke-dasharray:none;stroke-dashoffset:0;stroke-opacity:0.73039216"
       id="path905"
       d="M 32,8 C 18.842378,8 8,18.842378 8,32 v 40 c 0,9.013501 5.147072,16.844122 12.582031,20.943359 L 8.84375,116.42188 a 8.0008,8.0008 0 0 0 12.154297,9.82421 L 58.806641,96 H 96 c 13.15762,0 24,-10.842378 24,-24 V 32 C 120,18.842378 109.15762,8 96,8 Z" />
    <path
       style="opacity:1;fill:url(#linearGradient8528);fill-opacity:1;stroke:none;stroke-width:9.70140648;stroke-linecap:square;stroke-linejoin:bevel;stroke-miterlimit:4;stroke-dasharray:none;stroke-dashoffset:0;stroke-opacity:0.73039216"
       d="M 32 16 C 23.136 16 16 23.136 16 32 L 16 72 C 16 80.864 23.136 88 32 88 L 16 120 L 56 88 L 96 88 C 104.864 88 112 80.864 112 72 L 112 32 C 112 23.136 104.864 16 96 16 L 32 16 z "
       id="rect8502" />
  </g>
</svg>
